X: 587
M: C|
L: 1/8
K: F
|: c2 |\
ecBc ecBc | b2 a4 gf | e2d2 c2B2 | AG F4 c2 |\
ecBc gcBc | ga b4 ag | afef gece | f2c2 A2 :|

